svg/SJJB-OpenStreetMapIcons/poi/mine_abandoned.svg

<?xml version="1.0" encoding="UTF-8" standalone="no"?>
<!-- Created with Inkscape (http://www.inkscape.org/) -->

<svg
   xmlns:dc="http://purl.org/dc/elements/1.1/"
   xmlns:cc="http://creativecommons.org/ns#"
   xmlns:rdf="http://www.w3.org/1999/02/22-rdf-syntax-ns#"
   xmlns:svg="http://www.w3.org/2000/svg"
   xmlns="http://www.w3.org/2000/svg"
   xmlns:sodipodi="http://sodipodi.sourceforge.net/DTD/sodipodi-0.dtd"
   xmlns:inkscape="http://www.inkscape.org/namespaces/inkscape"
   version="1.0"
   width="580"
   height="580"
   id="svg2"
   sodipodi:version="0.32"
   inkscape:version="0.47 r22583"
   sodipodi:docname="poi_mine_abandoned.svg"
   inkscape:output_extension="org.inkscape.output.svg.inkscape">
  <metadata
     id="metadata10">
    <rdf:RDF>
      <cc:Work
         rdf:about="">
        <dc:format>image/svg+xml</dc:format>
        <dc:type
           rdf:resource="http://purl.org/dc/dcmitype/StillImage" />
        <cc:license
           rdf:resource="http://web.resource.org/cc/PublicDomain" />
        <dc:language>en</dc:language>
        <dc:title />
      </cc:Work>
    </rdf:RDF>
  </metadata>
  <sodipodi:namedview
     inkscape:window-height="1003"
     inkscape:window-width="1400"
     inkscape:pageshadow="2"
     inkscape:pageopacity="0.0"
     guidetolerance="10.0"
     gridtolerance="10.0"
     objecttolerance="10.0"
     borderopacity="1.0"
     bordercolor="#666666"
     pagecolor="#ffffff"
     id="base"
     showgrid="false"
     inkscape:zoom="0.35355339"
     inkscape:cx="441.97214"
     inkscape:cy="-34.972495"
     inkscape:window-x="0"
     inkscape:window-y="20"
     inkscape:current-layer="svg2"
     showguides="true"
     inkscape:guide-bbox="true"
     inkscape:window-maximized="0" />
  <defs
     id="defs4">
    <inkscape:perspective
       sodipodi:type="inkscape:persp3d"
       inkscape:vp_x="0 : 290 : 1"
       inkscape:vp_y="0 : 1000 : 0"
       inkscape:vp_z="580 : 290 : 1"
       inkscape:persp3d-origin="290 : 193.33333 : 1"
       id="perspective12" />
    <style
       type="text/css"
       id="style6">
   
    .fil0 {fill:#EF7900}
   
  </style>
    <inkscape:perspective
       id="perspective6807"
       inkscape:persp3d-origin="29.116032 : 19.410688 : 1"
       inkscape:vp_z="58.232063 : 29.116032 : 1"
       inkscape:vp_y="0 : 1000 : 0"
       inkscape:vp_x="0 : 29.116032 : 1"
       sodipodi:type="inkscape:persp3d" />
    <inkscape:perspective
       id="perspective6954"
       inkscape:persp3d-origin="290 : 193.33333 : 1"
       inkscape:vp_z="580 : 290 : 1"
       inkscape:vp_y="0 : 1000 : 0"
       inkscape:vp_x="0 : 290 : 1"
       sodipodi:type="inkscape:persp3d" />
    <inkscape:perspective
       id="perspective2541"
       inkscape:persp3d-origin="240 : 160 : 1"
       inkscape:vp_z="480 : 240 : 1"
       inkscape:vp_y="0 : 1000 : 0"
       inkscape:vp_x="0 : 240 : 1"
       sodipodi:type="inkscape:persp3d" />
    <inkscape:perspective
       id="perspective2750"
       inkscape:persp3d-origin="215 : 143.33333 : 1"
       inkscape:vp_z="430 : 215 : 1"
       inkscape:vp_y="0 : 1000 : 0"
       inkscape:vp_x="0 : 215 : 1"
       sodipodi:type="inkscape:persp3d" />
  </defs>
  <g
     id="g1327">
    <path
       d="M 66.275,1.768 C 24.94,1.768 1.704,23.139 1.704,66.804 L 1.704,516.927 C 1.704,557.771 22.598,579.156 63.896,579.156 L 515.92,579.156 C 557.227,579.156 578.149,558.84 578.149,516.927 L 578.149,66.804 C 578.149,24.203 557.227,1.768 514.627,1.768 C 514.624,1.768 66.133,1.625 66.275,1.768 z"
       style="fill:#111111;stroke:#eeeeee;stroke-width:3.40799999"
       id="path1329" />
  </g>
  <path
     id="path3652"
     d="m 376.5,54.875 c -10.97235,6.5028 -19.31732,16.735542 -29.44781,24.509018 -8.93761,8.0813 -19.25627,15.502418 -26.56746,25.123242 -0.1948,8.9594 9.95227,12.69132 14.56276,19.14863 17.36959,17.16678 34.73917,34.33357 52.10876,51.50036 -24.80085,27.08373 -50.32451,53.60456 -74.9375,80.8125 -2.61844,8.15613 6.56466,12.42401 11.0625,17.15625 3.72716,5.49146 12.63518,11.93393 18.3125,5.28125 23.55242,-27.85565 48.34353,-55.05148 73,-81.90625 15.93934,7.81589 25.11361,24.15554 40.23479,33.03594 27.04127,13.75185 53.47848,29.0633 80.89021,41.83906 6.22387,0.48814 7.83013,-8.23323 3.75,-11.78125 C 522.52717,227.614 510.83884,192.95698 492.8125,161.5 c -9.07964,-8.80204 -18.90897,-17.00312 -28.21875,-25.46875 5.32116,-5.69014 14.05126,-10.28969 15,-18.65625 -5.39531,-6.56492 -12.0162,-13.88162 -20.5,-15.71875 -6.98051,2.8682 -10.97467,9.67123 -16.5,14.40625 C 421.31264,96.367692 400.54369,76.334698 380.15625,55.625 379.03159,55.049456 377.77361,54.705803 376.5,54.875 z M 240.34375,334.09375 c -9.2108,5.91414 -14.92913,15.76968 -23.02059,23.01258 C 178.73791,398.61759 139.64343,439.75805 101.375,481.5 c -2.59898,8.76827 7.61902,12.85693 12.34375,18.03125 5.74688,4.3521 10.47125,13.33145 18.59375,12.25 24.49257,-24.7598 46.41777,-51.93604 70.01961,-77.48931 21.44133,-24.42735 43.66398,-48.34615 64.54289,-73.13569 1.95589,-9.17416 -8.63684,-13.28593 -13.40625,-19 -3.40432,-3.68397 -7.23423,-9.61746 -13.125,-8.0625 z"
     style="opacity:0.1;fill:#ffffff;fill-opacity:1;stroke:#ffffff;stroke-width:10;stroke-linecap:round;stroke-linejoin:round;stroke-miterlimit:4;stroke-opacity:1;stroke-dasharray:none" />
  <path
     id="path3654"
     d="M 211.8125,53.28125 C 197.17655,61.077142 184.51184,72.036932 170.56033,81.017431 132.18902,107.76574 95.305792,138.12891 70.4375,178.34375 c -12.305417,18.76433 -25.267546,37.33218 -37.03125,56.3125 0.739829,9.5112 11.764158,11.39769 17.392218,17.26654 13.51593,9.06039 25.859727,21.01011 40.636086,27.93516 9.131176,-2.18292 11.225706,-13.08807 17.171946,-19.24533 14.78123,-20.88692 28.8487,-42.43702 44.081,-62.89387 5.14249,3.38851 7.54686,9.62052 12.84007,13.12132 98.2233,98.04072 195.76825,196.75722 293.72243,295.06618 7.55316,4.1125 13.17171,-4.63057 17.46875,-9.40625 4.95765,-6.11006 14.24815,-10.50201 14.8586,-19.00321 C 479.25544,462.56236 463.99206,449.65439 450.01317,436.0034 358.84941,348.75743 267.41591,260.93893 176.03125,173.75 c -0.26516,-2.05087 4.54116,-2.32687 5.44321,-4.29383 24.84666,-18.45136 50.86955,-35.63071 74.96085,-54.90945 2.8989,-9.00426 -7.13373,-14.23987 -10.84095,-21.170958 C 234.8091,80.208212 226.17388,64.845408 213.5,53.40625 c -0.54331,-0.151896 -1.12735,-0.1972 -1.6875,-0.125 z"
     style="opacity:0.1;fill:#ffffff;fill-opacity:1;stroke:#ffffff;stroke-width:10;stroke-linecap:round;stroke-linejoin:round;stroke-miterlimit:4;stroke-opacity:1;stroke-dasharray:none" />
  <path
     style="fill:none;stroke:#ffffff;stroke-width:10;stroke-linecap:round;stroke-linejoin:round;stroke-miterlimit:4;stroke-opacity:1;stroke-dasharray:none;stroke-dashoffset:0"
     d="M 211.8125,53.28125 C 197.17655,61.077142 184.51184,72.036932 170.56033,81.017431 132.18902,107.76574 95.305792,138.12891 70.4375,178.34375 c -12.305417,18.76433 -25.267546,37.33218 -37.03125,56.3125 0.739829,9.5112 11.764158,11.39769 17.392218,17.26654 13.51593,9.06039 25.859727,21.01011 40.636086,27.93516 9.131176,-2.18292 11.225706,-13.08807 17.171946,-19.24533 14.78123,-20.88692 28.8487,-42.43702 44.081,-62.89387 5.14249,3.38851 7.54686,9.62052 12.84007,13.12132 98.2233,98.04072 195.76825,196.75722 293.72243,295.06618 7.55316,4.1125 13.17171,-4.63057 17.46875,-9.40625 4.95765,-6.11006 14.24815,-10.50201 14.8586,-19.00321 C 479.25544,462.56236 463.99206,449.65439 450.01317,436.0034 358.84941,348.75743 267.41591,260.93893 176.03125,173.75 c -0.26516,-2.05087 4.54116,-2.32687 5.44321,-4.29383 24.84666,-18.45136 50.86955,-35.63071 74.96085,-54.90945 2.8989,-9.00426 -7.13373,-14.23987 -10.84095,-21.170958 C 234.8091,80.208212 226.17388,64.845408 213.5,53.40625 c -0.54331,-0.151896 -1.12735,-0.1972 -1.6875,-0.125 z"
     id="path3621" />
  <path
     style="fill:none;stroke:#ffffff;stroke-width:10;stroke-linecap:round;stroke-linejoin:round;stroke-miterlimit:4;stroke-opacity:1;stroke-dasharray:none;stroke-dashoffset:0"
     d="m 376.5,54.875 c -10.97235,6.5028 -19.31732,16.735542 -29.44781,24.509018 -8.93761,8.0813 -19.25627,15.502418 -26.56746,25.123242 -0.1948,8.9594 9.95227,12.69132 14.56276,19.14863 17.36959,17.16678 34.73917,34.33357 52.10876,51.50036 -24.80085,27.08373 -50.32451,53.60456 -74.9375,80.8125 -2.61844,8.15613 6.56466,12.42401 11.0625,17.15625 3.72716,5.49146 12.63518,11.93393 18.3125,5.28125 23.55242,-27.85565 48.34353,-55.05148 73,-81.90625 15.93934,7.81589 25.11361,24.15554 40.23479,33.03594 27.04127,13.75185 53.47848,29.0633 80.89021,41.83906 6.22387,0.48814 7.83013,-8.23323 3.75,-11.78125 C 522.52717,227.614 510.83884,192.95698 492.8125,161.5 c -9.07964,-8.80204 -18.90897,-17.00312 -28.21875,-25.46875 5.32116,-5.69014 14.05126,-10.28969 15,-18.65625 -5.39531,-6.56492 -12.0162,-13.88162 -20.5,-15.71875 -6.98051,2.8682 -10.97467,9.67123 -16.5,14.40625 C 421.31264,96.367692 400.54369,76.334698 380.15625,55.625 379.03159,55.049456 377.77361,54.705803 376.5,54.875 z M 240.34375,334.09375 c -9.2108,5.91414 -14.92913,15.76968 -23.02059,23.01258 C 178.73791,398.61759 139.64343,439.75805 101.375,481.5 c -2.59898,8.76827 7.61902,12.85693 12.34375,18.03125 5.74688,4.3521 10.47125,13.33145 18.59375,12.25 24.49257,-24.7598 46.41777,-51.93604 70.01961,-77.48931 21.44133,-24.42735 43.66398,-48.34615 64.54289,-73.13569 1.95589,-9.17416 -8.63684,-13.28593 -13.40625,-19 -3.40432,-3.68397 -7.23423,-9.61746 -13.125,-8.0625 z"
     id="path3604" />
</svg>

<svg xmlns="http://www.w3.org/2000/svg" viewBox="0 0 580 580"><path d="m66.28 1.768c-41.34 0-64.57 21.371-64.57 65.04v450.12c0 40.844 20.894 62.23 62.19 62.23h452.02c41.31 0 62.23-20.316 62.23-62.23v-450.12c0-42.601-20.922-65.04-63.52-65.04-.003 0-448.49-.143-448.35 0z" fill="#111" stroke="#eee" stroke-width="3.408"/><g stroke="#fff" stroke-linejoin="round" stroke-linecap="round" stroke-width="10"><g fill="#fff"><path d="m376.5 54.875c-10.972 6.503-19.317 16.736-29.448 24.509-8.938 8.08-19.256 15.502-26.567 25.12-.195 8.959 9.952 12.691 14.563 19.15 17.37 17.17 34.739 34.33 52.11 51.5-24.801 27.08-50.32 53.605-74.938 80.81-2.618 8.156 6.565 12.424 11.06 17.16 3.727 5.491 12.635 11.934 18.313 5.281 23.552-27.856 48.34-55.05 73-81.906 15.939 7.816 25.11 24.16 40.23 33.04 27.04 13.752 53.48 29.06 80.89 41.839 6.224.488 7.83-8.233 3.75-11.781-16.942-31.98-28.63-66.64-46.656-98.09-9.08-8.802-18.909-17-28.22-25.469 5.321-5.69 14.05-10.29 15-18.656-5.395-6.565-12.02-13.882-20.5-15.719-6.981 2.868-10.975 9.671-16.5 14.406-21.281-19.695-42.05-39.728-62.44-60.44-1.125-.576-2.383-.919-3.656-.75zm-136.16 279.22c-9.211 5.914-14.929 15.77-23.02 23.01-38.585 41.511-77.68 82.65-115.95 124.39-2.599 8.768 7.619 12.857 12.344 18.03 5.747 4.352 10.471 13.331 18.594 12.25 24.493-24.76 46.42-51.936 70.02-77.49 21.441-24.427 43.664-48.35 64.54-73.14 1.956-9.174-8.637-13.286-13.406-19-3.404-3.684-7.234-9.617-13.12-8.06z" opacity=".1"/><path d="m211.81 53.28c-14.636 7.796-27.301 18.756-41.25 27.736-38.37 26.748-75.25 57.11-100.12 97.33-12.305 18.764-25.27 37.33-37.03 56.31.74 9.511 11.764 11.398 17.392 17.267 13.516 9.06 25.86 21.01 40.636 27.935 9.131-2.183 11.226-13.09 17.17-19.245 14.781-20.887 28.849-42.44 44.08-62.894 5.142 3.389 7.547 9.621 12.84 13.12 98.22 98.04 195.77 196.76 293.72 295.07 7.553 4.113 13.172-4.631 17.469-9.406 4.958-6.11 14.248-10.502 14.859-19-12.322-14.934-27.585-27.842-41.564-41.493-91.16-87.25-182.6-175.06-273.98-262.25-.265-2.051 4.541-2.327 5.443-4.294 24.847-18.451 50.87-35.631 74.961-54.909 2.899-9-7.134-14.24-10.841-21.17-10.785-13.168-19.42-28.53-32.09-39.97-.543-.152-1.127-.197-1.688-.125z" opacity=".1"/></g><g fill="none"><path d="m211.81 53.28c-14.636 7.796-27.301 18.756-41.25 27.736-38.37 26.748-75.25 57.11-100.12 97.33-12.305 18.764-25.27 37.33-37.03 56.31.74 9.511 11.764 11.398 17.392 17.267 13.516 9.06 25.86 21.01 40.636 27.935 9.131-2.183 11.226-13.09 17.17-19.245 14.781-20.887 28.849-42.44 44.08-62.894 5.142 3.389 7.547 9.621 12.84 13.12 98.22 98.04 195.77 196.76 293.72 295.07 7.553 4.113 13.172-4.631 17.469-9.406 4.958-6.11 14.248-10.502 14.859-19-12.322-14.934-27.585-27.842-41.564-41.493-91.16-87.25-182.6-175.06-273.98-262.25-.265-2.051 4.541-2.327 5.443-4.294 24.847-18.451 50.87-35.631 74.961-54.909 2.899-9-7.134-14.24-10.841-21.17-10.785-13.168-19.42-28.53-32.09-39.97-.543-.152-1.127-.197-1.688-.125z"/><path d="m376.5 54.875c-10.972 6.503-19.317 16.736-29.448 24.509-8.938 8.08-19.256 15.502-26.567 25.12-.195 8.959 9.952 12.691 14.563 19.15 17.37 17.17 34.739 34.33 52.11 51.5-24.801 27.08-50.32 53.605-74.938 80.81-2.618 8.156 6.565 12.424 11.06 17.16 3.727 5.491 12.635 11.934 18.313 5.281 23.552-27.856 48.34-55.05 73-81.906 15.939 7.816 25.11 24.16 40.23 33.04 27.04 13.752 53.48 29.06 80.89 41.839 6.224.488 7.83-8.233 3.75-11.781-16.942-31.98-28.63-66.64-46.656-98.09-9.08-8.802-18.909-17-28.22-25.469 5.321-5.69 14.05-10.29 15-18.656-5.395-6.565-12.02-13.882-20.5-15.719-6.981 2.868-10.975 9.671-16.5 14.406-21.281-19.695-42.05-39.728-62.44-60.44-1.125-.576-2.383-.919-3.656-.75zm-136.16 279.22c-9.211 5.914-14.929 15.77-23.02 23.01-38.585 41.511-77.68 82.65-115.95 124.39-2.599 8.768 7.619 12.857 12.344 18.03 5.747 4.352 10.471 13.331 18.594 12.25 24.493-24.76 46.42-51.936 70.02-77.49 21.441-24.427 43.664-48.35 64.54-73.14 1.956-9.174-8.637-13.286-13.406-19-3.404-3.684-7.234-9.617-13.12-8.06z"/></g></g></svg>
